usr/share/icons/biglinux-icons-material/24/actions/list-add-user.svg

<svg xmlns="http://www.w3.org/2000/svg" viewBox="0 0 24 24"><path d="M12 4c-1.662 0-3 1.338-3 3s1.338 3 3 3 3-1.338 3-3-1.338-3-3-3zm0 8c-2.77 0-5 .892-5 2v6h7v-1H8v-4.572C8 13.636 9.784 13 12 13c1.795 0 3.29.42 3.799 1H17c0-1.108-2.23-2-5-2zm5 3v2h-2v1h2v2h1v-2h2v-1h-2v-2h-1z" style="fill:currentColor;fill-opacity:1;stroke:none;color:#dedede"/></svg>

<svg xmlns="http://www.w3.org/2000/svg" viewBox="0 0 24 24">
  <defs id="defs3051">
    <style type="text/css" id="current-color-scheme">
      .ColorScheme-Text {
        color:#dedede;
      }
      </style>
  </defs>
 <path style="fill:currentColor;fill-opacity:1;stroke:none" 
     d="M 12 4 C 10.338 4 9 5.338 9 7 C 9 8.662 10.338 10 12 10 C 13.662 10 15 8.662 15 7 C 15 5.338 13.662 4 12 4 z M 12 12 C 9.23 12 7 12.89198 7 14 L 7 19 L 7 20 L 8.2011719 20 L 14 20 L 14 19 L 8 19 L 8 14.427734 C 8 13.636304 9.784 13 12 13 C 13.795116 13 15.289377 13.420682 15.798828 14 L 17 14 C 17 12.89198 14.77 12 12 12 z M 17 15 L 17 17 L 15 17 L 15 18 L 17 18 L 17 20 L 18 20 L 18 18 L 20 18 L 20 17 L 18 17 L 18 15 L 17 15 z "
     class="ColorScheme-Text"
     />
</svg>
